Newaita-dark/apps/64/itch.svg

<svg height="64" viewBox="0 0 64 64" width="64" xmlns="http://www.w3.org/2000/svg" xmlns:xlink="http://www.w3.org/1999/xlink"><linearGradient id="a" gradientTransform="matrix(.116576 0 0 .125012 1.988619 26.87757)" gradientUnits="userSpaceOnUse" x1="254" x2="254" y1="233.5" y2="254.666672"><stop offset="0" stop-opacity=".27451"/><stop offset="1" stop-opacity="0"/></linearGradient><linearGradient id="b"><stop offset="0" stop-opacity=".313726"/><stop offset=".222222" stop-opacity=".27451"/><stop offset="1" stop-opacity="0"/></linearGradient><radialGradient id="c" cx="450.908936" cy="189.579361" gradientTransform="matrix(.00000032 -.156265 -.262295 -.0000002 101.064518 127.190665)" gradientUnits="userSpaceOnUse" r="21.166656" xlink:href="#b"/><radialGradient id="d" cx="450.908936" cy="189.579361" gradientTransform="matrix(-.00000032 .156265 .262295 .0000002 -37.558454 -15.054958)" gradientUnits="userSpaceOnUse" r="21.166656" xlink:href="#b"/><radialGradient id="e" cx="450.908936" cy="189.579361" gradientTransform="matrix(-.00000032 -.156265 .262295 -.0000002 -37.558454 127.190665)" gradientUnits="userSpaceOnUse" r="21.166656" xlink:href="#b"/><radialGradient id="f" cx="450.908936" cy="189.579361" gradientTransform="matrix(.00000032 .156265 -.262295 .0000002 101.064516 -15.054959)" gradientUnits="userSpaceOnUse" r="21.166656" xlink:href="#b"/><linearGradient id="g" gradientUnits="userSpaceOnUse" x1="31.753048" x2="31.753048" y1="56.067868" y2="5.79220799994"><stop offset="0" stop-color="#f44336"/><stop offset="1" stop-color="#ef5350"/></linearGradient><linearGradient id="h" gradientUnits="userSpaceOnUse" x1="31.765913" x2="31.765913" y1="55.40640462201" y2="5.13073262201"><stop offset="0" stop-color="#bdbdbd"/><stop offset="1" stop-color="#e0e0e0"/></linearGradient><path d="m11.550781 56.066406h40.40625v2.648438h-40.40625zm0 0" fill="url(#a)"/><path d="m51.957031 56.066406h4.933594v-2.644531h-4.933594zm0 0" fill="url(#c)"/><path d="m11.550781 56.066406h-4.9375v2.648438h4.9375zm0 0" fill="url(#d)"/><path d="m11.550781 56.066406h-4.9375v-2.644531h4.9375zm0 0" fill="url(#e)"/><path d="m51.957031 56.066406h4.933594v2.648438h-4.933594zm0 0" fill="url(#f)"/><path d="m9.261719 5.792969h44.984375c1.460937 0 2.644531 1.183593 2.644531 2.644531v44.984375c0 1.460937-1.183594 2.644531-2.644531 2.644531h-44.984375c-1.460938 0-2.648438-1.183594-2.648438-2.644531v-44.984375c0-1.460938 1.1875-2.644531 2.648438-2.644531zm0 0" fill="url(#g)"/><path d="m9.261719 5.792969c-1.464844 0-2.648438 1.179687-2.648438 2.644531v.667969c0-1.464844 1.183594-2.644531 2.648438-2.644531h44.984375c1.464844 0 2.644531 1.179687 2.644531 2.644531v-.667969c0-1.464844-1.179687-2.644531-2.644531-2.644531zm0 0" fill="#fff" fill-opacity=".392157"/><path d="m9.261719 56.066406c-1.464844 0-2.648438-1.179687-2.648438-2.644531v-.992187c0 1.464843 1.183594 2.644531 2.648438 2.644531h44.984375c1.464844 0 2.644531-1.179688 2.644531-2.644531v.992187c0 1.464844-1.179687 2.644531-2.644531 2.644531zm0 0" fill-opacity=".235294"/><path d="m74.086675-168.660675h359.840637c11.686384 0 21.15423 9.467846 21.15423 21.15423v359.840637c0 11.686384-9.467846 21.154229-21.15423 21.154229h-359.840637c-11.686384 0-21.185477-9.467845-21.185477-21.154229v-359.840637c0-11.686384 9.499093-21.15423 21.185477-21.15423zm0 0" fill="none" stroke="#212121" stroke-linecap="round" stroke-linejoin="round" stroke-width="3" transform="matrix(.125012 0 0 .125012 0 26.877566)"/><path d="m23.828125 20.347656c-3.664063 0-6.617187 2.949219-6.617187 6.613282 0 1.496093.492187 2.871093 1.324218 3.980468v1.441406c0 4.398438 1.390625 7.941407 3.117188 7.941407h.382812c1.585938 0 2.882813-2.984375 3.085938-6.875.679687-.132813 1.316406-.367188 1.902344-.691407.113281 1.480469 3.417968 1.480469 3.417968-.503906h2.648438c0 1.984375 3.308594 1.984375 3.417968.503906.585938.324219 1.222657.558594 1.902344.691407.203125 3.890625 1.503906 6.875 3.085938 6.875h.386718c1.722657 0 3.113282-3.542969 3.113282-7.941407v-1.441406c.832031-1.109375 1.324218-2.484375 1.324218-3.980468 0-3.664063-2.953124-6.613282-6.617187-6.613282-2.171875 0-4.09375 1.035156-5.296875 2.644532h-5.277344c-1.207031-1.609376-3.128906-2.644532-5.300781-2.644532zm7.277344 4.296875h1.320312c.367188 0 .664063.296875.664063.664063v1.984375h1.320312l-2.644531 3.304687-2.644531-3.304687h1.320312v-1.984375c0-.367188.296875-.664063.664063-.664063zm0 0" fill="url(#h)"/><path d="m23.828125 20.34375c-3.664063 0-6.617187 2.953125-6.617187 6.617188 0 .140624.003906.28125.015624.417968.207032-3.472656 3.074219-6.207031 6.601563-6.207031 2.171875 0 4.09375 1.039063 5.300781 2.648437h5.277344c1.203125-1.609374 3.125-2.648437 5.296875-2.648437 3.527344 0 6.394531 2.734375 6.601563 6.207031.011718-.136718.015624-.277344.015624-.417968 0-3.664063-2.953124-6.617188-6.617187-6.617188-2.171875 0-4.09375 1.039062-5.296875 2.648438h-5.277344c-1.207031-1.609376-3.128906-2.648438-5.300781-2.648438zm5.292969 7.773438 2.644531 3.308593 2.644531-3.308593h-.660156l-1.984375 2.480468-1.984375-2.480468zm0 0" fill="#f7f7f7"/><path d="m31.105469 24.636719c-.367188 0-.664063.292969-.664063.660156v1.460937c0-.367187.296875-.664062.664063-.664062h1.320312c.367188 0 .664063.296875.664063.664062v-1.460937c0-.367187-.296875-.660156-.664063-.660156zm-1.984375 2.644531 1.164062 1.460938h.15625v-1.460938zm3.96875 0v1.460938h.15625l1.164062-1.460938zm-15.835938.398438c-.027344.242187-.042968.484374-.042968.730468 0 1.496094.492187 2.871094 1.324218 3.980469v1.441406c0 4.398438 1.390625 7.941407 3.117188 7.941407h.382812c1.585938 0 2.882813-2.984376 3.085938-6.875.679687-.132813 1.316406-.367188 1.902344-.691407.113281 1.480469 3.417968 1.480469 3.417968-.503906h2.648438c0 1.984375 3.308594 1.984375 3.417968.503906.585938.324219 1.222657.558594 1.902344.691407.203125 3.890624 1.503906 6.875 3.085938 6.875h.386718c1.722657 0 3.113282-3.542969 3.113282-7.941407v-1.441406c.832031-1.109375 1.324218-2.484375 1.324218-3.980469 0-.246094-.015624-.488281-.039062-.730468-.132812 1.214843-.589844 2.328124-1.285156 3.25v1.445312c0 4.398438-1.390625 7.9375-3.113282 7.9375h-.386718c-1.582032 0-2.882813-2.980469-3.085938-6.871094-.679687-.132812-1.316406-.371094-1.902344-.691406-.109374 1.476562-3.417968 1.476562-3.417968-.507812h-2.648438c0 1.984374-3.304687 1.984374-3.417968.507812-.585938.320312-1.222657.558594-1.902344.691406-.203125 3.890625-1.5 6.871094-3.085938 6.871094h-.382812c-1.726563 0-3.117188-3.539062-3.117188-7.9375v-1.445312c-.695312-.921876-1.152344-2.035157-1.28125-3.25zm0 0" fill-opacity=".235294"/><path d="m190.50395-46.94287c-29.309701 0-52.932445 23.591498-52.932445 52.901199 0 11.967607 3.937124 22.966556 10.592738 31.840709v11.530149c0 35.18414 11.123938 63.525184 24.935119 63.525184h3.062207c12.686289 0 23.060298-23.872721 24.685143-54.994749 5.436981-1.062398 10.530244-2.937219 15.217297-5.530722.906163 11.84262 27.341139 11.84262 27.341139-4.030865h21.185477c0 15.873485 26.466222 15.873485 27.341139 4.030865 4.687052 2.593503 9.780316 4.468324 15.217297 5.530722 1.624845 31.122028 12.030101 54.994749 24.685142 54.994749h3.093455c13.779934 0 24.903872-28.341044 24.903872-63.525184v-11.530149c6.655614-8.874153 10.592738-19.873102 10.592738-31.840709 0-29.309701-23.622744-52.901199-52.932445-52.901199-17.373341 0-32.746873 8.28046-42.370954 21.15423h-42.214718c-9.655328-12.87377-25.02886-21.15423-42.402201-21.15423zm58.213191 34.371718h10.561491c2.93722 0 5.311993 2.374773 5.311993 5.311993v15.873484h10.561491l-21.15423 26.434976-21.154229-26.434976h10.561491v-15.873484c0-2.93722 2.374773-5.311993 5.311993-5.311993zm0 0" fill="none" stroke="#212121" stroke-linecap="round" stroke-linejoin="round" stroke-width="3" transform="matrix(.125012 0 0 .125012 .012857 26.216075)"/></svg>

<?xml version="1.0" encoding="UTF-8"?>
<svg xmlns="http://www.w3.org/2000/svg" xmlns:xlink="http://www.w3.org/1999/xlink" width="64px" height="64px" viewBox="0 0 64 64" version="1.1">
<defs>
<linearGradient id="linear0" gradientUnits="userSpaceOnUse" x1="254" y1="233.5" x2="254" y2="254.666672" gradientTransform="matrix(0.116576,0,0,0.125012,1.988619,26.87757)">
<stop offset="0" style="stop-color:rgb(0%,0%,0%);stop-opacity:0.27451;"/>
<stop offset="1" style="stop-color:rgb(0%,0%,0%);stop-opacity:0;"/>
</linearGradient>
<radialGradient id="radial0" gradientUnits="userSpaceOnUse" cx="450.908936" cy="189.579361" fx="450.908936" fy="189.579361" r="21.166656" gradientTransform="matrix(0.000000324833,-0.156265,-0.262295,-0.000000203077,101.064518,127.190665)">
<stop offset="0" style="stop-color:rgb(0%,0%,0%);stop-opacity:0.313726;"/>
<stop offset="0.222222" style="stop-color:rgb(0%,0%,0%);stop-opacity:0.27451;"/>
<stop offset="1" style="stop-color:rgb(0%,0%,0%);stop-opacity:0;"/>
</radialGradient>
<radialGradient id="radial1" gradientUnits="userSpaceOnUse" cx="450.908936" cy="189.579361" fx="450.908936" fy="189.579361" r="21.166656" gradientTransform="matrix(-0.000000324833,0.156265,0.262295,0.000000203077,-37.558454,-15.054958)">
<stop offset="0" style="stop-color:rgb(0%,0%,0%);stop-opacity:0.313726;"/>
<stop offset="0.222222" style="stop-color:rgb(0%,0%,0%);stop-opacity:0.27451;"/>
<stop offset="1" style="stop-color:rgb(0%,0%,0%);stop-opacity:0;"/>
</radialGradient>
<radialGradient id="radial2" gradientUnits="userSpaceOnUse" cx="450.908936" cy="189.579361" fx="450.908936" fy="189.579361" r="21.166656" gradientTransform="matrix(-0.000000324833,-0.156265,0.262295,-0.000000203077,-37.558454,127.190665)">
<stop offset="0" style="stop-color:rgb(0%,0%,0%);stop-opacity:0.313726;"/>
<stop offset="0.222222" style="stop-color:rgb(0%,0%,0%);stop-opacity:0.27451;"/>
<stop offset="1" style="stop-color:rgb(0%,0%,0%);stop-opacity:0;"/>
</radialGradient>
<radialGradient id="radial3" gradientUnits="userSpaceOnUse" cx="450.908936" cy="189.579361" fx="450.908936" fy="189.579361" r="21.166656" gradientTransform="matrix(0.000000324833,0.156265,-0.262295,0.000000203077,101.064516,-15.054959)">
<stop offset="0" style="stop-color:rgb(0%,0%,0%);stop-opacity:0.313726;"/>
<stop offset="0.222222" style="stop-color:rgb(0%,0%,0%);stop-opacity:0.27451;"/>
<stop offset="1" style="stop-color:rgb(0%,0%,0%);stop-opacity:0;"/>
</radialGradient>
<linearGradient id="linear1" gradientUnits="userSpaceOnUse" x1="254" y1="233.5" x2="254" y2="-168.666672" gradientTransform="matrix(0.125012,0,0,0.125012,0,26.877566)">
<stop offset="0" style="stop-color:rgb(95.686275%,26.274511%,21.176471%);stop-opacity:1;"/>
<stop offset="1" style="stop-color:rgb(93.725491%,32.549021%,31.37255%);stop-opacity:1;"/>
</linearGradient>
<linearGradient id="linear2" gradientUnits="userSpaceOnUse" x1="960" y1="1715.117188" x2="960" y2="195.117188" gradientTransform="matrix(0.0330761,0,0,0.0330761,0.0128573,-1.322983)">
<stop offset="0" style="stop-color:rgb(74.117649%,74.117649%,74.117649%);stop-opacity:1;"/>
<stop offset="1" style="stop-color:rgb(87.843138%,87.843138%,87.843138%);stop-opacity:1;"/>
</linearGradient>
</defs>
<g id="surface1">
<path style=" stroke:none;fill-rule:nonzero;fill:url(#linear0);" d="M 11.550781 56.066406 L 51.957031 56.066406 L 51.957031 58.714844 L 11.550781 58.714844 Z M 11.550781 56.066406 "/>
<path style=" stroke:none;fill-rule:nonzero;fill:url(#radial0);" d="M 51.957031 56.066406 L 56.890625 56.066406 L 56.890625 53.421875 L 51.957031 53.421875 Z M 51.957031 56.066406 "/>
<path style=" stroke:none;fill-rule:nonzero;fill:url(#radial1);" d="M 11.550781 56.066406 L 6.613281 56.066406 L 6.613281 58.714844 L 11.550781 58.714844 Z M 11.550781 56.066406 "/>
<path style=" stroke:none;fill-rule:nonzero;fill:url(#radial2);" d="M 11.550781 56.066406 L 6.613281 56.066406 L 6.613281 53.421875 L 11.550781 53.421875 Z M 11.550781 56.066406 "/>
<path style=" stroke:none;fill-rule:nonzero;fill:url(#radial3);" d="M 51.957031 56.066406 L 56.890625 56.066406 L 56.890625 58.714844 L 51.957031 58.714844 Z M 51.957031 56.066406 "/>
<path style=" stroke:none;fill-rule:nonzero;fill:url(#linear1);" d="M 9.261719 5.792969 L 54.246094 5.792969 C 55.707031 5.792969 56.890625 6.976562 56.890625 8.4375 L 56.890625 53.421875 C 56.890625 54.882812 55.707031 56.066406 54.246094 56.066406 L 9.261719 56.066406 C 7.800781 56.066406 6.613281 54.882812 6.613281 53.421875 L 6.613281 8.4375 C 6.613281 6.976562 7.800781 5.792969 9.261719 5.792969 Z M 9.261719 5.792969 "/>
<path style=" stroke:none;fill-rule:nonzero;fill:rgb(100%,100%,100%);fill-opacity:0.392157;" d="M 9.261719 5.792969 C 7.796875 5.792969 6.613281 6.972656 6.613281 8.4375 L 6.613281 9.105469 C 6.613281 7.640625 7.796875 6.460938 9.261719 6.460938 L 54.246094 6.460938 C 55.710938 6.460938 56.890625 7.640625 56.890625 9.105469 L 56.890625 8.4375 C 56.890625 6.972656 55.710938 5.792969 54.246094 5.792969 Z M 9.261719 5.792969 "/>
<path style=" stroke:none;fill-rule:nonzero;fill:rgb(0%,0%,0%);fill-opacity:0.235294;" d="M 9.261719 56.066406 C 7.796875 56.066406 6.613281 54.886719 6.613281 53.421875 L 6.613281 52.429688 C 6.613281 53.894531 7.796875 55.074219 9.261719 55.074219 L 54.246094 55.074219 C 55.710938 55.074219 56.890625 53.894531 56.890625 52.429688 L 56.890625 53.421875 C 56.890625 54.886719 55.710938 56.066406 54.246094 56.066406 Z M 9.261719 56.066406 "/>
<path style="fill:none;stroke-width:3;stroke-linecap:round;stroke-linejoin:round;stroke:rgb(12.941177%,12.941177%,12.941177%);stroke-opacity:1;stroke-miterlimit:4;" d="M 74.086675 -168.660675 L 433.927312 -168.660675 C 445.613696 -168.660675 455.081542 -159.192829 455.081542 -147.506445 L 455.081542 212.334192 C 455.081542 224.020576 445.613696 233.488421 433.927312 233.488421 L 74.086675 233.488421 C 62.400291 233.488421 52.901198 224.020576 52.901198 212.334192 L 52.901198 -147.506445 C 52.901198 -159.192829 62.400291 -168.660675 74.086675 -168.660675 Z M 74.086675 -168.660675 " transform="matrix(0.125012,0,0,0.125012,0,26.877566)"/>
<path style=" stroke:none;fill-rule:nonzero;fill:url(#linear2);" d="M 23.828125 20.347656 C 20.164062 20.347656 17.210938 23.296875 17.210938 26.960938 C 17.210938 28.457031 17.703125 29.832031 18.535156 30.941406 L 18.535156 32.382812 C 18.535156 36.78125 19.925781 40.324219 21.652344 40.324219 L 22.035156 40.324219 C 23.621094 40.324219 24.917969 37.339844 25.121094 33.449219 C 25.800781 33.316406 26.4375 33.082031 27.023438 32.757812 C 27.136719 34.238281 30.441406 34.238281 30.441406 32.253906 L 33.089844 32.253906 C 33.089844 34.238281 36.398438 34.238281 36.507812 32.757812 C 37.09375 33.082031 37.730469 33.316406 38.410156 33.449219 C 38.613281 37.339844 39.914062 40.324219 41.496094 40.324219 L 41.882812 40.324219 C 43.605469 40.324219 44.996094 36.78125 44.996094 32.382812 L 44.996094 30.941406 C 45.828125 29.832031 46.320312 28.457031 46.320312 26.960938 C 46.320312 23.296875 43.367188 20.347656 39.703125 20.347656 C 37.53125 20.347656 35.609375 21.382812 34.40625 22.992188 L 29.128906 22.992188 C 27.921875 21.382812 26 20.347656 23.828125 20.347656 Z M 31.105469 24.644531 L 32.425781 24.644531 C 32.792969 24.644531 33.089844 24.941406 33.089844 25.308594 L 33.089844 27.292969 L 34.410156 27.292969 L 31.765625 30.597656 L 29.121094 27.292969 L 30.441406 27.292969 L 30.441406 25.308594 C 30.441406 24.941406 30.738281 24.644531 31.105469 24.644531 Z M 31.105469 24.644531 "/>
<path style=" stroke:none;fill-rule:nonzero;fill:rgb(96.862745%,96.862745%,96.862745%);fill-opacity:1;" d="M 23.828125 20.34375 C 20.164062 20.34375 17.210938 23.296875 17.210938 26.960938 C 17.210938 27.101562 17.214844 27.242188 17.226562 27.378906 C 17.433594 23.90625 20.300781 21.171875 23.828125 21.171875 C 26 21.171875 27.921875 22.210938 29.128906 23.820312 L 34.40625 23.820312 C 35.609375 22.210938 37.53125 21.171875 39.703125 21.171875 C 43.230469 21.171875 46.097656 23.90625 46.304688 27.378906 C 46.316406 27.242188 46.320312 27.101562 46.320312 26.960938 C 46.320312 23.296875 43.367188 20.34375 39.703125 20.34375 C 37.53125 20.34375 35.609375 21.382812 34.40625 22.992188 L 29.128906 22.992188 C 27.921875 21.382812 26 20.34375 23.828125 20.34375 Z M 29.121094 28.117188 L 31.765625 31.425781 L 34.410156 28.117188 L 33.75 28.117188 L 31.765625 30.597656 L 29.78125 28.117188 Z M 29.121094 28.117188 "/>
<path style=" stroke:none;fill-rule:nonzero;fill:rgb(0%,0%,0%);fill-opacity:0.235294;" d="M 31.105469 24.636719 C 30.738281 24.636719 30.441406 24.929688 30.441406 25.296875 L 30.441406 26.757812 C 30.441406 26.390625 30.738281 26.09375 31.105469 26.09375 L 32.425781 26.09375 C 32.792969 26.09375 33.089844 26.390625 33.089844 26.757812 L 33.089844 25.296875 C 33.089844 24.929688 32.792969 24.636719 32.425781 24.636719 Z M 29.121094 27.28125 L 30.285156 28.742188 L 30.441406 28.742188 L 30.441406 27.28125 Z M 33.089844 27.28125 L 33.089844 28.742188 L 33.246094 28.742188 L 34.410156 27.28125 Z M 17.253906 27.679688 C 17.226562 27.921875 17.210938 28.164062 17.210938 28.410156 C 17.210938 29.90625 17.703125 31.28125 18.535156 32.390625 L 18.535156 33.832031 C 18.535156 38.230469 19.925781 41.773438 21.652344 41.773438 L 22.035156 41.773438 C 23.621094 41.773438 24.917969 38.789062 25.121094 34.898438 C 25.800781 34.765625 26.4375 34.53125 27.023438 34.207031 C 27.136719 35.6875 30.441406 35.6875 30.441406 33.703125 L 33.089844 33.703125 C 33.089844 35.6875 36.398438 35.6875 36.507812 34.207031 C 37.09375 34.53125 37.730469 34.765625 38.410156 34.898438 C 38.613281 38.789062 39.914062 41.773438 41.496094 41.773438 L 41.882812 41.773438 C 43.605469 41.773438 44.996094 38.230469 44.996094 33.832031 L 44.996094 32.390625 C 45.828125 31.28125 46.320312 29.90625 46.320312 28.410156 C 46.320312 28.164062 46.304688 27.921875 46.28125 27.679688 C 46.148438 28.894531 45.691406 30.007812 44.996094 30.929688 L 44.996094 32.375 C 44.996094 36.773438 43.605469 40.3125 41.882812 40.3125 L 41.496094 40.3125 C 39.914062 40.3125 38.613281 37.332031 38.410156 33.441406 C 37.730469 33.308594 37.09375 33.070312 36.507812 32.75 C 36.398438 34.226562 33.089844 34.226562 33.089844 32.242188 L 30.441406 32.242188 C 30.441406 34.226562 27.136719 34.226562 27.023438 32.75 C 26.4375 33.070312 25.800781 33.308594 25.121094 33.441406 C 24.917969 37.332031 23.621094 40.3125 22.035156 40.3125 L 21.652344 40.3125 C 19.925781 40.3125 18.535156 36.773438 18.535156 32.375 L 18.535156 30.929688 C 17.839844 30.007812 17.382812 28.894531 17.253906 27.679688 Z M 17.253906 27.679688 "/>
<path style="fill:none;stroke-width:3;stroke-linecap:round;stroke-linejoin:round;stroke:rgb(12.941177%,12.941177%,12.941177%);stroke-opacity:1;stroke-miterlimit:4;" d="M 190.50395 -46.94287 C 161.194249 -46.94287 137.571505 -23.351372 137.571505 5.958329 C 137.571505 17.925936 141.508629 28.924885 148.164243 37.799038 L 148.164243 49.329187 C 148.164243 84.513327 159.288181 112.854371 173.099362 112.854371 L 176.161569 112.854371 C 188.847858 112.854371 199.221867 88.98165 200.846712 57.859622 C 206.283693 56.797224 211.376956 54.922403 216.064009 52.3289 C 216.970172 64.17152 243.405148 64.17152 243.405148 48.298035 L 264.590625 48.298035 C 264.590625 64.17152 291.056847 64.17152 291.931764 52.3289 C 296.618816 54.922403 301.71208 56.797224 307.149061 57.859622 C 308.773906 88.98165 319.179162 112.854371 331.834203 112.854371 L 334.927658 112.854371 C 348.707592 112.854371 359.83153 84.513327 359.83153 49.329187 L 359.83153 37.799038 C 366.487144 28.924885 370.424268 17.925936 370.424268 5.958329 C 370.424268 -23.351372 346.801524 -46.94287 317.491823 -46.94287 C 300.118482 -46.94287 284.74495 -38.66241 275.120869 -25.78864 L 232.906151 -25.78864 C 223.250823 -38.66241 207.877291 -46.94287 190.50395 -46.94287 Z M 248.717141 -12.571152 L 259.278632 -12.571152 C 262.215852 -12.571152 264.590625 -10.196379 264.590625 -7.259159 L 264.590625 8.614325 L 275.152116 8.614325 L 253.997886 35.049301 L 232.843657 8.614325 L 243.405148 8.614325 L 243.405148 -7.259159 C 243.405148 -10.196379 245.779921 -12.571152 248.717141 -12.571152 Z M 248.717141 -12.571152 " transform="matrix(0.125012,0,0,0.125012,0.0128573,26.216075)"/>
</g>
</svg>
